img/varieties.svg

<svg width="48" height="48" viewBox="0 0 48 48" fill="none" xmlns="http://www.w3.org/2000/svg">
<path d="M9.9998 38.0994C7.3998 38.0994 4.8998 36.2994 3.5998 33.4994C2.7998 31.7994 2.5998 29.8994 2.9998 28.1994C3.3998 26.3994 4.4998 24.9994 5.9998 24.3994C6.6998 24.0994 7.3998 23.8994 8.1998 23.8994C10.7998 23.8994 13.2998 25.6994 14.5998 28.4994C16.2998 32.1994 15.1998 36.2994 12.1998 37.6994C11.4998 37.8994 10.6998 38.0994 9.9998 38.0994ZM8.0998 25.7994C7.5998 25.7994 7.1998 25.8994 6.7998 26.0994C5.8998 26.4994 5.1998 27.3994 4.8998 28.5994C4.5998 29.8994 4.7998 31.2994 5.3998 32.5994C6.3998 34.6994 8.1998 35.9994 9.9998 35.9994C10.4998 35.9994 10.8998 35.8994 11.2998 35.6994C13.2998 34.7994 13.9998 31.7994 12.6998 29.1994C11.7998 27.1994 9.8998 25.7994 8.0998 25.7994Z" fill="white"/>
<path d="M12.0001 37.3996C11.9001 37.3996 11.8001 37.3996 11.7001 37.3996C11.2001 37.2996 10.8001 36.6996 11.0001 36.1996C11.3001 35.0996 10.8001 33.7996 9.90007 33.1996C9.60007 32.9996 9.30007 32.7996 8.90007 32.5996C8.60007 32.3996 8.20007 32.2996 7.90007 32.0996C5.60007 30.5996 4.60007 27.4996 5.50007 24.9996C5.70007 24.4996 6.30007 24.1996 6.80007 24.3996C7.30007 24.5996 7.60007 25.1996 7.40007 25.6996C6.80007 27.3996 7.50007 29.4996 9.00007 30.4996C9.30007 30.6996 9.50007 30.7996 9.80007 30.8996C10.2001 31.0996 10.7001 31.2996 11.1001 31.6996C12.6001 32.8996 13.4001 34.9996 12.9001 36.8996C12.8001 37.0996 12.4001 37.3996 12.0001 37.3996Z" fill="white"/>
<path d="M22.5001 7.8998C22.2001 7.8998 22.0001 7.7998 21.8001 7.5998C21.3001 7.0998 20.6001 6.0998 20.7001 4.6998C20.7001 4.3998 20.8001 4.0998 20.9001 3.8998L21.0001 3.5998C21.3001 2.5998 21.3001 2.4998 21.2001 1.5998C21.1001 1.0998 21.5001 0.499801 22.0001 0.499801C22.6001 0.399801 23.1001 0.799801 23.1001 1.2998C23.3001 2.5998 23.2001 2.9998 22.8001 4.1998L22.7001 4.4998C22.7001 4.6998 22.6001 4.7998 22.6001 4.9998C22.6001 5.3998 22.8001 5.7998 23.1001 6.1998C23.5001 6.5998 23.5001 7.1998 23.1001 7.5998C23.0001 7.7998 22.7001 7.8998 22.5001 7.8998Z" fill="white"/>
<path d="M26.4005 7.8998C26.1005 7.8998 25.9005 7.7998 25.7005 7.5998C25.2005 7.0998 24.5005 6.0998 24.6005 4.7998C24.6005 4.4998 24.7005 4.1998 24.8005 3.9998L24.9005 3.6998C25.2005 2.6998 25.2005 2.5998 25.1005 1.6998C25.0005 1.0998 25.4005 0.599801 26.0005 0.499801C26.6005 0.399801 27.1005 0.799801 27.1005 1.2998C27.3005 2.5998 27.2005 2.9998 26.8005 4.1998L26.7005 4.4998C26.7005 4.6998 26.6005 4.7998 26.6005 4.9998C26.6005 5.3998 26.8005 5.7998 27.1005 6.1998C27.5005 6.5998 27.5005 7.1998 27.1005 7.5998C26.9005 7.7998 26.7005 7.8998 26.4005 7.8998Z" fill="white"/>
<path d="M30.2999 7.89941C29.9999 7.89941 29.7999 7.79941 29.5999 7.59941C29.0999 7.09941 28.3999 6.09941 28.4999 4.79941C28.4999 4.49941 28.5999 4.19941 28.6999 3.99941L28.7999 3.69941C29.0999 2.69941 29.0999 2.59941 28.9999 1.69941C28.8999 1.19941 29.2999 0.59941 29.7999 0.59941C30.3999 0.49941 30.8999 0.89941 30.8999 1.39941C31.0999 2.69941 30.9999 3.09941 30.5999 4.29941L30.4999 4.59941C30.4999 4.79941 30.3999 4.89941 30.3999 5.09941C30.3999 5.49941 30.5999 5.89941 30.8999 6.29941C31.2999 6.69941 31.2999 7.29941 30.8999 7.69941C30.7999 7.79941 30.5999 7.89941 30.2999 7.89941Z" fill="white"/>
<path d="M33.9004 38.8994H18.8004C18.3004 38.8994 17.9004 38.4994 17.8004 37.9994L14.9004 10.9994C14.9004 10.6994 15.0004 10.3994 15.2004 10.1994C15.4004 9.99941 15.7004 9.89941 15.9004 9.89941H36.0004C36.3004 9.89941 36.5004 9.99941 36.7004 10.1994C36.9004 10.3994 37.0004 10.6994 37.0004 10.9994L34.8004 37.9994C34.9004 38.4994 34.4004 38.8994 33.9004 38.8994ZM19.7004 36.8994H33.0004L35.0004 11.8994H17.0004L19.7004 36.8994Z" fill="white"/>
<path d="M34.4003 33.1993C34.0003 33.1993 33.7003 32.9993 33.5003 32.6993C33.2003 32.1993 33.4003 31.5993 33.9003 31.3993C40.9003 27.7993 42.8003 23.3993 43.2003 20.3993C43.4003 18.5993 42.6003 16.8993 41.1003 16.1993C40.4003 15.8993 39.7003 15.7993 39.1003 16.0993C37.5003 16.6993 36.5003 18.7993 36.5003 18.8993C36.3003 19.3993 35.7003 19.5993 35.2003 19.3993C34.7003 19.1993 34.5003 18.5993 34.7003 18.0993C34.8003 17.9993 36.0003 15.1993 38.5003 14.2993C39.7003 13.8993 40.9003 13.8993 42.1003 14.4993C44.4003 15.5993 45.7003 18.0993 45.4003 20.7993C45.0003 24.2993 42.8003 29.2993 35.1003 33.2993C34.7003 33.1993 34.5003 33.1993 34.4003 33.1993Z" fill="white"/>
<path d="M42.3 47.5002H5.8C5.4 47.5002 5.1 47.3002 4.9 47.0002L2.4 42.7002C2.2 42.4002 2.2 42.0002 2.4 41.7002C2.6 41.4002 2.9 41.2002 3.3 41.2002H44.8C45.2 41.2002 45.5 41.4002 45.7 41.7002C45.9 42.0002 45.9 42.4002 45.7 42.7002L43.1 47.0002C42.9 47.3002 42.6 47.5002 42.3 47.5002ZM6.3 45.5002H41.6L42.9 43.2002H5L6.3 45.5002Z" fill="white"/>
</svg>

<svg xmlns="http://www.w3.org/2000/svg" xmlns:xlink="http://www.w3.org/1999/xlink" version="1.1" x="0px" y="0px" viewBox="0 0 48 48" enable-background="new 0 0 48 48" xml:space="preserve" style="max-width:100%" height="100%"><g style="" fill="currentColor"><g style="" fill="currentColor"><path fill="currentColor" d="M10,38.1c-2.6,0-5.1-1.8-6.4-4.6c-0.8-1.7-1-3.6-0.6-5.3c0.4-1.8,1.5-3.2,3-3.8c0.7-0.3,1.4-0.5,2.2-0.5    c2.6,0,5.1,1.8,6.4,4.6c1.7,3.7,0.6,7.8-2.4,9.2C11.5,37.9,10.7,38.1,10,38.1z M8.1,25.8c-0.5,0-0.9,0.1-1.3,0.3    c-0.9,0.4-1.6,1.3-1.9,2.5c-0.3,1.3-0.1,2.7,0.5,4c1,2.1,2.8,3.4,4.6,3.4c0.5,0,0.9-0.1,1.3-0.3c2-0.9,2.7-3.9,1.4-6.5    C11.8,27.2,9.9,25.8,8.1,25.8z" style=""></path><path fill="currentColor" d="M12,37.4c-0.1,0-0.2,0-0.3,0c-0.5-0.1-0.9-0.7-0.7-1.2c0.3-1.1-0.2-2.4-1.1-3c-0.3-0.2-0.6-0.4-1-0.6    c-0.3-0.2-0.7-0.3-1-0.5c-2.3-1.5-3.3-4.6-2.4-7.1c0.2-0.5,0.8-0.8,1.3-0.6c0.5,0.2,0.8,0.8,0.6,1.3c-0.6,1.7,0.1,3.8,1.6,4.8    c0.3,0.2,0.5,0.3,0.8,0.4c0.4,0.2,0.9,0.4,1.3,0.8c1.5,1.2,2.3,3.3,1.8,5.2C12.8,37.1,12.4,37.4,12,37.4z" style=""></path></g><g style="" fill="currentColor"><g style="" fill="currentColor"><path fill="currentColor" d="M22.5,7.9c-0.3,0-0.5-0.1-0.7-0.3c-0.5-0.5-1.2-1.5-1.1-2.9c0-0.3,0.1-0.6,0.2-0.8L21,3.6     c0.3-1,0.3-1.1,0.2-2c-0.1-0.5,0.3-1.1,0.8-1.1c0.6-0.1,1.1,0.3,1.1,0.8c0.2,1.3,0.1,1.7-0.3,2.9l-0.1,0.3c0,0.2-0.1,0.3-0.1,0.5     c0,0.4,0.2,0.8,0.5,1.2c0.4,0.4,0.4,1,0,1.4C23,7.8,22.7,7.9,22.5,7.9z" style=""></path><path fill="currentColor" d="M26.4,7.9c-0.3,0-0.5-0.1-0.7-0.3c-0.5-0.5-1.2-1.5-1.1-2.8c0-0.3,0.1-0.6,0.2-0.8l0.1-0.3     c0.3-1,0.3-1.1,0.2-2C25,1.1,25.4,0.6,26,0.5c0.6-0.1,1.1,0.3,1.1,0.8c0.2,1.3,0.1,1.7-0.3,2.9l-0.1,0.3c0,0.2-0.1,0.3-0.1,0.5     c0,0.4,0.2,0.8,0.5,1.2c0.4,0.4,0.4,1,0,1.4C26.9,7.8,26.7,7.9,26.4,7.9z" style=""></path><path fill="currentColor" d="M30.3,7.9c-0.3,0-0.5-0.1-0.7-0.3c-0.5-0.5-1.2-1.5-1.1-2.8c0-0.3,0.1-0.6,0.2-0.8l0.1-0.3     c0.3-1,0.3-1.1,0.2-2c-0.1-0.5,0.3-1.1,0.8-1.1c0.6-0.1,1.1,0.3,1.1,0.8c0.2,1.3,0.1,1.7-0.3,2.9l-0.1,0.3c0,0.2-0.1,0.3-0.1,0.5     c0,0.4,0.2,0.8,0.5,1.2c0.4,0.4,0.4,1,0,1.4C30.8,7.8,30.6,7.9,30.3,7.9z" style=""></path></g><g style="" fill="currentColor"><path fill="currentColor" d="M33.9,38.9H18.8c-0.5,0-0.9-0.4-1-0.9l-2.9-27c0-0.3,0.1-0.6,0.3-0.8c0.2-0.2,0.5-0.3,0.7-0.3h20.1     c0.3,0,0.5,0.1,0.7,0.3c0.2,0.2,0.3,0.5,0.3,0.8l-2.2,27C34.9,38.5,34.4,38.9,33.9,38.9z M19.7,36.9H33l2-25H17L19.7,36.9z" style=""></path><path fill="currentColor" d="M34.4,33.2c-0.4,0-0.7-0.2-0.9-0.5c-0.3-0.5-0.1-1.1,0.4-1.3c7-3.6,8.9-8,9.3-11c0.2-1.8-0.6-3.5-2.1-4.2     c-0.7-0.3-1.4-0.4-2-0.1c-1.6,0.6-2.6,2.7-2.6,2.8c-0.2,0.5-0.8,0.7-1.3,0.5c-0.5-0.2-0.7-0.8-0.5-1.3c0.1-0.1,1.3-2.9,3.8-3.8     c1.2-0.4,2.4-0.4,3.6,0.2c2.3,1.1,3.6,3.6,3.3,6.3c-0.4,3.5-2.6,8.5-10.3,12.5C34.7,33.2,34.5,33.2,34.4,33.2z" style=""></path></g></g><path fill="currentColor" d="M42.3,47.5H5.8c-0.4,0-0.7-0.2-0.9-0.5l-2.5-4.3c-0.2-0.3-0.2-0.7,0-1c0.2-0.3,0.5-0.5,0.9-0.5h41.5   c0.4,0,0.7,0.2,0.9,0.5c0.2,0.3,0.2,0.7,0,1L43.1,47C42.9,47.3,42.6,47.5,42.3,47.5z M6.3,45.5h35.3l1.3-2.3H5L6.3,45.5z" style=""></path></g></svg>
